!!!COM:	Johannes Ockeghem
!!!CDT:	~1425-1497/02/06
!!!OPR:	Kyrie-Gloria-Credo Sine nomine
!!!OTL:	Gloria
!!!AGN:	Mass; Gloria
!!!SCT:	Ock1001b
!!!SCA:	Ock1001b
!!!voices:	5
!!!voices-OPR:	5
**kern	**kern	**kern	**kern	**kern
*staff5	*staff4	*staff3	*staff2	*staff1
*Ivox	*Ivox	*Ivox	*Ivox	*Ivox
*I"Bassus	*I"Tenor2	*I"Tenor	*I"Altus	*I"Superius
*I'B	*I'T	*I'T	*I'A	*I'S
*clefF4	*clefF4	*clefGv2	*clefGv2	*clefG2
*k[]	*k[]	*k[]	*k[]	*k[]
*M2/1	*M2/1	*M2/1	*M2/1	*M2/1
*met(C|)	*met(C|)	*met(C|)	*met(C|)	*met(C|)
!!section: Et in terra
!!!OMD: Et in terra
=1-	=1-	=1-	=1-	=1-
0r	1E	0r	1e	1e
.	1E	.	1e	1g
=2	=2	=2	=2	=2
0r	2D\	0r	2f\	1a
.	2C/	.	1e	.
.	1D	.	.	2a/
.	.	.	2d\	[2a/
=3	=3	=3	=3	=3
0r	1E	1r	1c	2a/]
.	.	.	.	2g/
.	1D	[1d	[1f	2a/
.	.	.	.	[2b\
=4	=4	=4	=4	=4
0r	0r	2d\]	2f\]	2b\]
.	.	2c\	1e	1a
.	.	1B	.	.
.	.	.	2d\	2g#i/
=5	=5	=5	=5	=5
1AA	0r	1A	1e	1a
2.C/	.	1r	1e	2a/
.	.	.	.	2a/
4BB/	.	.	.	.
=6	=6	=6	=6	=6
2GG/	0r	0r	2e\	2g/
1FF	.	.	2f\	1a
.	.	.	2d\	.
2GG/	.	.	[2e\	2g/
=7	=7	=7	=7	=7
1DD	1D	1A	2e\]	1f
.	.	.	2d\	.
1AA	1AA	1A	1c	1e
=8	=8	=8	=8	=8
1EE	2E\	1G	1B	0r
.	1E	.	.	.
1r	.	1E	1e	.
.	2D\	.	.	.
=9	=9	=9	=9	=9
1AA	1C	0r	2e\	0r
.	.	.	1e	.
1GG	1BB	.	.	.
.	.	.	2d\	.
=10	=10	=10	=10	=10
1AA	2r	1A	1c	0r
.	2E\	.	.	.
1EE	2E\	1G	1B	.
.	2E\	.	.	.
=11	=11	=11	=11	=11
2FF/	2D\	2A/	1r	0r
2GG/	2BB/	2B\	.	.
1AA	2r	2.c\	2e\	.
.	[2E\	.	2e\	.
.	.	4B\	.	.
=12	=12	=12	=12	=12
1C	2E\]	0G	2e\	0r
.	2C/	.	2e\	.
1GG	1D	.	2d\	.
.	.	.	2B\	.
=13	=13	=13	=13	=13
2r	1C	1E	0r	0r
2AA/	.	.	.	.
2BB/	2D\	2G/	.	.
2AA/	2C/	2A/	.	.
=14	=14	=14	=14	=14
2.C/	2.E\	2A/	0r	0r
.	.	2G/	.	.
4GG/	4D\	.	.	.
2C/	2E\	2A/	.	.
2D\	[2F\	[2B\	.	.
=15	=15	=15	=15	=15
1AA	2F\]	2B\]	0r	0r
.	1E	1A	.	.
1BB	.	.	.	.
.	2D\	2G#i/	.	.
=16	=16	=16	=16	=16
1AA	1.E	2A/	1.c	1e
.	.	2A/	.	.
1AA	.	2A/	.	2e/
.	2C/	2A/	2c\	2e/
=17	=17	=17	=17	=17
2.AA/	2.C/	2A/	2.c\	2e/
.	.	2A/	.	2f/
4FF/	4D\	.	4A/	.
2GG/	2BB/	2G/	2B\	2e/
[2FF/	[2AA/	[2A/	[2c\	[2f/
=18	=18	=18	=18	=18
2FF/]	2AA/]	2A/]	4c\]	2f/]
.	.	.	4B\	.
2CC/	2GG/	2E/	2c\	2.e/
1DD	1FF	1F	1A	.
.	.	.	.	4d/
.	.	.	.	4d/
.	.	.	.	4c/
=19	=19	=19	=19	=19
0AA	2r	1E	2r	1.e
.	1C	.	2A/	.
.	.	1r	2A/	.
.	2AA/	.	2A/	2c/
=20	=20	=20	=20	=20
2EE/	2BB/	0r	2G/	2B/
2r	1C	.	1E	2A/
1r	.	.	.	2c/
.	[2E\	.	[2G/	[2B/
=21	=21	=21	=21	=21
0r	2E\]	0r	2G/]	2B/]
.	2.F\	.	2A/	1A
.	.	.	1B	.
.	4D\	.	.	.
.	2E\	.	.	2G#i/
=22	=22	=22	=22	=22
1r	1AA	0E	1A	1A
1AA	1C	.	1A	1r
=23	=23	=23	=23	=23
2AA/	2C/	2E/	2A/	0r
2AA/	2C/	2E/	2A/	.
2BB-i/	2BB/	2D/	2G/	.
[2AA/	[2C/	[2E/	[2A/	.
=24	=24	=24	=24	=24
4AA/]	2C/]	2E/]	2A/]	0r
4FF/	.	.	.	.
2GG/	2BB/	2D/	2G/	.
1AA	1AA	1C	1F	.
=25	=25	=25	=25	=25
1EE	1GG	1BB	1E	1r
1r	1AA	[1C	2r	1a
.	.	.	[2e\	.
=26	=26	=26	=26	=26
0r	1AA	1C]	2e\]	2a/
.	.	.	2e\	2a/
.	1C	1E	2e\	2g/
.	.	.	2e\	[2e/
=27	=27	=27	=27	=27
0r	1E	1G	2c\	2e/]
.	.	.	2c\	2g/
.	2F\	1r	2A/	2a/
.	[2G\	.	[2d\	[2b\
=28	=28	=28	=28	=28
1r	2G\]	1r	2d\]	2b\]
.	1A	.	2c\	2a/
1DD	.	1A	1d	1a
.	2F\	.	.	.
=29	=29	=29	=29	=29
1GG	1E	1B	1e	1g
1FF	1AA	1c	1f	1a
=30	=30	=30	=30	=30
1GG	1BB	1B	2e\	2g/
.	.	.	2B\	2e/
1DD	1D	1A	1d	1f
=31	=31	=31	=31	=31
1AA	1E	1r	1c	1e
1D	1F	1A	1d	1r
=32	=32	=32	=32	=32
2C/	2E\	2A/	0r	0r
2AA/	2C/	2A/	.	.
2BB/	2D\	2G/	.	.
[2C/	2C/	2E/	.	.
=33	=33	=33	=33	=33
2C/]	1AA	0r	2A/	0r
2FF/	.	.	2A/	.
1GG	1BB	.	2G/	.
.	.	.	2E/	.
=34	=34	=34	=34	=34
1FF	1C	1A	1r	1.f
1r	1D	2A/	1F	.
.	.	2A/	.	2d/
=35	=35	=35	=35	=35
0r	1E	2G/	1G	1.c
.	.	2E/	.	.
.	2AA/	2E/	2A/	.
.	2BB/	2G/	2G/	2d/
=36	=36	=36	=36	=36
0r	2C/	2A/	2E/	2e/
.	1D	2A/	1D	1f
.	.	2A/	.	.
.	2GG/	[2B\	[2G/	[2e/
=37	=37	=37	=37	=37
0r	1D	4B\]	2G/]	4e/]
.	.	4A/	.	4d/
.	.	1A	2F/	1d
.	1E	.	2G/	.
.	.	2G/	2E/	2c#i/
=38	=38	=38	=38	=38
1DD	1AA	2A/	1F	1d
.	.	2A/	.	.
2GG/	2r	2G/	2E/	2e/
[2FF/	[2AA/	[2A/	2D/	[2f/
=39	=39	=39	=39	=39
2FF/]	4AA/]	2A/]	0r	4f/]
.	4FF/	.	.	8e/L
.	.	.	.	8d/J
2EE/	2GG/	2G/	.	2c/
1DD	2AA/	1F	.	1d
.	2BB/	.	.	.
=40	=40	=40	=40	=40
1AA	1C	1E	1A	2e/
.	.	.	.	2e/
1r	1r	2E/	2B\	2g/
.	.	2F/	2A/	2a/
=41	=41	=41	=41	=41
0r	0r	2F/	1d	2.a/
.	.	2D/	.	.
.	.	.	.	4f/
.	.	2E/	2c\	2g/
.	.	2F/	2f\	2a/
=42	=42	=42	=42	=42
0r	0r	1G	2d\	1b
.	.	.	2e\	.
.	.	1F	1f	1a
=43	=43	=43	=43	=43
2FF/	2C/	2c\	2f\	2a/
2FF/	2C/	2c\	2f\	2a/
2FF/	2C/	2c\	2f\	2a/
2FF/	2C/	2c\	2f\	2a/
=44	=44	=44	=44	=44
2FF/	2C/	2c\	2f\	2a/
2FF/	2C/	2c\	2f\	2a/
2GG/	2E\	2B\	2e\	2g/
[2FF/	[2AA/	[2c\	[2f\	[2a/
=45	=45	=45	=45	=45
2FF/]	2AA/]	2c\]	2f\]	2a/]
2GG/	2BB/	2B\	1e	2e/
2AA/	2C/	1A	.	1f
2BB/	2D\	.	2d\	.
=46	=46	=46	=46	=46
1C	1E	2G/	2c\	1e
.	.	2E/	2A/	.
2BB/	2D\	2G/	2B\	2r
2AA/	[2C/	2A/	[2c\	[2e/
=47	=47	=47	=47	=47
2C/	4C/]	2A/	2c\]	2e/]
.	4AA/	.	.	.
2FF/	2AA/	2A/	2d\	2f/
2EE/	2BB/	2G/	2e\	2g/
2FF/	2AA/	2A/	2d\	2f/
=48	=48	=48	=48	=48
1EE	1GG	1B	1e	1g
2FF/	2AA/	2A/	2r	2f/
2GG/	[2BB/	2G/	2d\	2d/
=49	=49	=49	=49	=49
2EE/	2BB/]	2G/	2e\	2g/
2FF/	1AA	1A	2c\	1f
2DD/	.	.	2d\	.
2r	2C/	2G/	2c\	[2e/
=50	=50	=50	=50	=50
0r	1D	1F	1A	2e/]
.	.	.	.	2d/
.	1AA	1E	2r	1e
.	.	.	[2A/	.
=51	=51	=51	=51	=51
0r	1D	0r	2A/]	1f
.	.	.	2A/	.
.	2C/	.	2A/	2e/
.	2D\	.	2A/	[2d/
=52	=52	=52	=52	=52
0r	2BB/	0r	2G/	2d/]
.	2AA/	.	2A/	2c/
.	1E	.	2G/	1B
.	.	.	2E/	.
=53	=53	=53	=53	=53
1DD	1F	2A/	0r	1A
.	.	2A/	.	.
1FF	2D\	2A/	.	1r
.	[2D\	2A/	.	.
=54	=54	=54	=54	=54
1EE	2D\]	2G/	1r	1e
.	2C/	2E/	.	.
1DD	1D	1r	2A/	1f
.	.	.	2A/	.
=55	=55	=55	=55	=55
0r	2AA/	0r	2A/	2f/
.	1C	.	2G/	1e
.	.	.	1A	.
.	2D\	.	.	4d/
.	.	.	.	4c/
=56	=56	=56	=56	=56
1r	1E	1r	2G/	1B
.	.	.	2E/	.
1EE	1E	1G	1G	1c
=57	=57	=57	=57	=57
1DD	1F	1F	1A	1d
1GG	1D	1G	1B	1B
=58	=58	=58	=58	=58
1.AA	0C	1E	1A	1c
.	.	1A	1E	1r
2FF/	.	.	.	.
=59	=59	=59	=59	=59
1EE	1E	1G	1G	0r
1r	2F\	2r	2A/	.
.	[2D\	[2F/	[2B\	.
=60	=60	=60	=60	=60
0r	2D\]	2F/]	2B\]	0r
.	2C/	2E/	1A	.
.	1BB	1D	.	.
.	.	.	2G#i/	.
=61	=61	=61	=61	=61
1r	1AA	1E	1A	1r
1AA	1E	1A	1c	1e
=62	=62	=62	=62	=62
1.DD	1.D	1.A	1.d	1.f
2DD/	2D\	2A/	2d\	2f/
=63	=63	=63	=63	=63
1DD	1D	1A	1d	1f
1EE	1GG	1G	1c	1e
=64	=64	=64	=64	=64
1DD	1AA	1F	1d	1f
1GG	1BB-	1G	1r	2e/
.	.	.	.	[2d/
=65	=65	=65	=65	=65
1AA	1AA	1E	1A	2d/]
.	.	.	.	2c#i/
2.GG/	1D	2r	1B	1d
.	.	[2G/	.	.
4AA/	.	.	.	.
=66	=66	=66	=66	=66
2BB/	1r	2G/]	2G/	1r
1C	.	2E/	2A/	.
.	1GG	1D	1B	1d
2BB/	.	.	.	.
=67	=67	=67	=67	=67
1C	2.C/	1E	1G	1c
.	4E\	.	.	.
2BB/	2D\	2G/	2B\	2d/
[2AA/	2E\	[2A/	[2c\	2c/
=68	=68	=68	=68	=68
2AA/]	1AA	2A/]	2c\]	2.f/
2FF/	.	2D/	2F/	.
.	.	.	.	4d/
2EE/	2GG/	2E/	2G/	2c/
2DD/	[2AA/	[2F/	2F/	[2d/
=69	=69	=69	=69	=69
1GG	4AA/]	2F/]	1G	2d/]
.	4GG/	.	.	.
.	2BB/	1E	.	2B/
1FF	2C/	.	1A	1A
.	2D\	2D/	.	.
=70	=70	=70	=70	=70
[0EEl	2r	[0El	[0Gl	0c
.	1GG	.	.	.
.	2AA/	.	.	.
=71	=71	=71	=71	=71
0EE]	0BBl	0E]	0G]	0Bl
==	==	==	==	==
*-	*-	*-	*-	*-
!!!RDF**kern: l=long note in original notation
!!!RDF**kern: i=editorial accidental
!!!RDF**kern: V=start of tuplet marker
!!!RDF**kern: Z=end of tuplet marker
!!!ENC:	Jesse Rodin 8-17-2012
!!!END:	2012/08/17/
!!!EED:	Jesse Rodin
!!!EEV:	2012/08/17/
!!!ONB:	Translated from MusicXML and edited on 2012/08/17/ by Craig Sapp
!!muse2ps: T^@{OPR}^u^@{ONM}{. }@{OTL}^C^@{COM}^i2I150v85,85,85,85,130Q16
